src/assets/outline/RotateRight.svg

<svg width="24" height="24" viewBox="0 0 24 24"  xmlns="http://www.w3.org/2000/svg">
<path d="M12.0001 22.7499C6.80008 22.7499 2.58008 18.5199 2.58008 13.3299C2.58008 8.1399 6.80008 3.8999 12.0001 3.8999C13.0701 3.8999 14.1101 4.0499 15.1101 4.3599C15.5101 4.4799 15.7301 4.8999 15.6101 5.2999C15.4901 5.6999 15.0701 5.9199 14.6701 5.7999C13.8201 5.5399 12.9201 5.3999 12.0001 5.3999C7.63008 5.3999 4.08008 8.9499 4.08008 13.3199C4.08008 17.6899 7.63008 21.2399 12.0001 21.2399C16.3701 21.2399 19.9201 17.6899 19.9201 13.3199C19.9201 11.7399 19.4601 10.2199 18.5901 8.9199C18.3601 8.5799 18.4501 8.1099 18.8001 7.8799C19.1401 7.6499 19.6101 7.7399 19.8401 8.0899C20.8801 9.6399 21.4301 11.4499 21.4301 13.3299C21.4201 18.5199 17.2001 22.7499 12.0001 22.7499Z" />
<path d="M16.13 6.06996C15.92 6.06996 15.71 5.97996 15.56 5.80996L12.67 2.48996C12.4 2.17996 12.43 1.69996 12.74 1.42996C13.05 1.15996 13.53 1.18996 13.8 1.49996L16.69 4.81996C16.96 5.12996 16.93 5.60996 16.62 5.87996C16.49 6.00996 16.31 6.06996 16.13 6.06996Z" />
<path d="M12.7602 8.52996C12.5302 8.52996 12.3002 8.41996 12.1502 8.21996C11.9102 7.88996 11.9802 7.41996 12.3102 7.16996L15.6802 4.70996C16.0102 4.45996 16.4802 4.53996 16.7302 4.86996C16.9802 5.19996 16.9002 5.66996 16.5702 5.91996L13.2002 8.38996C13.0702 8.48996 12.9202 8.52996 12.7602 8.52996Z" />
</svg>

<?xml version="1.0" encoding="UTF-8"?>
<svg width="24" height="24" viewBox="0 0 24 24" xmlns="http://www.w3.org/2000/svg">
 <path d="m12 22.75c-5.2 0-9.42-4.23-9.42-9.42s4.22-9.43 9.42-9.43c1.07 0 2.11 0.15 3.11 0.46 0.4 0.12 0.62 0.54 0.5 0.94s-0.54 0.62-0.94 0.5c-0.85-0.26-1.75-0.4-2.67-0.4-4.37 0-7.92 3.55-7.92 7.92s3.55 7.92 7.92 7.92c4.37 0 7.92-3.55 7.92-7.92 0-1.58-0.46-3.1-1.33-4.4-0.23-0.34-0.14-0.81 0.21-1.04 0.34-0.23 0.81-0.14 1.04 0.21 1.04 1.55 1.59 3.36 1.59 5.24-0.01 5.19-4.23 9.42-9.43 9.42z"/>
 <path d="m16.13 6.07c-0.21 0-0.42-0.09-0.57-0.26l-2.89-3.32c-0.27-0.31-0.24-0.79 0.07-1.06s0.79-0.24 1.06 0.07l2.89 3.32c0.27 0.31 0.24 0.79-0.07 1.06-0.13 0.13-0.31 0.19-0.49 0.19z"/>
 <path d="m12.76 8.53c-0.23 0-0.46-0.11-0.61-0.31-0.24-0.33-0.17-0.8 0.16-1.05l3.37-2.46c0.33-0.25 0.8-0.17 1.05 0.16s0.17 0.8-0.16 1.05l-3.37 2.47c-0.13 0.1-0.28 0.14-0.44 0.14z"/>
</svg>
